packages/design-system/src/images/information-new.svg

<svg width="16" height="16" xmlns="http://www.w3.org/2000/svg">
    <path d="M8 16c-4.4 0-8-3.6-8-8s3.6-8 8-8 8 3.6 8 8-3.6 8-8 8zm1-3.7V6.4H7v5.9h2zM7 4.9c0 .6.3.9 1 .9s1-.3 1-.9c0-.3-.1-.5-.2-.7-.2-.1-.5-.2-.8-.2-.3 0-.6.1-.8.2-.1.2-.2.4-.2.7z" fill-rule="nonzero" fill="#5B616B"/>
</svg>

<?xml version="1.0" encoding="UTF-8"?>
<svg width="16px" height="16px" viewBox="0 0 16 16" version="1.1" xmlns="http://www.w3.org/2000/svg" xmlns:xlink="http://www.w3.org/1999/xlink">
    <!-- Generator: Sketch 55.2 (78181) - https://sketchapp.com -->
    <title>Icon / Information (new)</title>
    <desc>Created with Sketch.</desc>
    <g id="Page-1" stroke="none" stroke-width="1" fill="none" fill-rule="evenodd">
        <g id="info-new" fill="#5B616B">
            <g id="Icon-/-Information-(new)" transform="translate(-4.000000, -4.000000)">
                <g id="i-icon-and-outline">
                    <g id="_xD83C__xDFDD_-Plan-Cards" transform="translate(4.000000, 4.000000)" fill-rule="nonzero">
                        <g id="Artboard-3">
                            <g id="i-circle">
                                <path d="M8,16 C3.6,16 0,12.4 0,8 C0,3.6 3.6,0 8,0 C12.4,0 16,3.6 16,8 C16,12.4 12.4,16 8,16 Z M9,12.3 L9,6.4 L7,6.4 L7,12.3 L9,12.3 Z M7,4.9 C7,5.5 7.3,5.8 8,5.8 C8.7,5.8 9,5.5 9,4.9 C9,4.6 8.9,4.4 8.8,4.2 C8.6,4.1 8.3,4 8,4 C7.7,4 7.4,4.1 7.2,4.2 C7.1,4.4 7,4.6 7,4.9 Z" id="Combined-Shape"></path>
                            </g>
                        </g>
                    </g>
                </g>
            </g>
        </g>
    </g>
</svg>
